!!!!SEGMENT: pl-kozmzk--mzk-m-26--009_stefani-jozef--msza-swieta-dona-nobis.krn
!!!cenid: 18xx:2953
!!!COM: Stefani, Józef
!!!COM-rismID: pe30024097
!!!CDT: 1800/04/16-1876/03/19
!!!CNT: Polish
!!!OPR: Msza Święta
!!!OTL: Dona nobis
!!!OMV: 009
!!!PDT:
!!!AGN: Sacred; Mass
!!!SMS-siglum: PL-KOZmzk
!!!SMS-shelfmark: mzk/m/26
!!!SMS-shelfwork: 001-009 M
!!!SMS-variant:
!!!SMS-altvar:
!!!NIFC-rismSourceID: 1001024881
!!!NIFC-islandoraID: pl-kozmzk:12693
!!!URL-pdf-islandora: https://repozytorium.nifc.pl/islandora/object/pl-kozmzk%3A12693/datastream/PDF/view
!!!URL-scan: https://polish.musicsources.pl/pl/lokalizacje/galeria/rekopisy/460 @EN{Scan on Polish Music Herritage in Open Access Website} @PL{Skany w portalu Dziedzictwo Muzyki Polskiej w otwartym dostępie}
!!!ONB-nifc: UWAGA: Części mszy: 1. Kyrie, 2. Gloria, 3. Graduale, 4. Credo, 5. Offertorium,
!!!OMD: Moderato
!!!AIN: 4 empty
!!!key:
**kern	**kern	**kern	**text	**dynam	**kern	**text	**dynam	**kern	**text	**dynam
*group2	*group2	*group1	*	*	*group1	*	*	*group1	*	*
*part4	*part4	*part3	*part3	*part3	*part2	*part2	*part2	*part1	*part1	*part1
*staff5	*staff4	*staff3	*staff3	*	*staff2	*staff2	*	*staff1	*staff1	*
*Iempty	*Iempty	*Iempty	*	*	*Iempty	*	*	*Iempty	*	*
*I"	*I"	*I"	*	*	*I"	*	*	*I"	*	*
*clefF4	*clefG2	*clefF4	*	*	*clefC4	*	*	*clefC4	*	*
*k[b-e-]	*k[b-e-]	*k[b-e-]	*	*	*k[b-e-]	*	*	*k[b-e-]	*	*
*B-:	*B-:	*B-:	*	*	*B-:	*	*	*B-:	*	*
*M3/4	*M3/4	*M3/4	*	*	*M3/4	*	*	*M3/4	*	*
*2\right	*2\right	*2\right	*	*	*2\right	*	*	*2\right	*	*
=1	=1	=1	=1	=1	=1	=1	=1	=1	=1	=1
2.r	8r	2.r	.	.	2.r	.	.	2.r	.	.
.	8f/L	.	.	.	.	.	.	.	.	.
.	8g/	.	.	.	.	.	.	.	.	.
.	8a/	.	.	.	.	.	.	.	.	.
.	8b-/	.	.	.	.	.	.	.	.	.
.	8cc/J	.	.	.	.	.	.	.	.	.
=2	=2	=2	=2	=2	=2	=2	=2	=2	=2	=2
*^	*^	*	*	*	*	*	*	*	*	*
!	!	!	!	!	!	!	!	!	!	!	!	!LO:DY:a
2F/ 2B-	4BB-\	4dd/	2f\ 2b-	8.BB-/	.	.	8.B-\	Gdyś-	.	8.d\	.	f
.	.	.	.	16BB-/	.	.	16B-\	-my	.	16d\	.	.
.	4D\	4ff/	.	4D\	.	.	4B-\	już	.	4f\	.	.
8.C\L 8.G 8.c	4ryy	8.ee-/L	8.e-\L 8.g	8.C/	.	.	8.G/	wy-	.	8.e-\	.	.
16F\Jk 16c	.	16cc/Jk	16f\Jk 16a	16F\	.	.	16A/	-słu-	.	16c\	.	.
*v	*v	*	*	*	*	*	*	*	*	*	*	*
*	*v	*v	*	*	*	*	*	*	*	*	*
=3	=3	=3	=3	=3	=3	=3	=3	=3	=3	=3
8BB-\L 8B-	4.f/ 4.b- 4.dd	4BB-/	.	.	4B-\	-cha-	.	4d\	.	.
8F\	.	.	.	.	.	.	.	.	.	.
8D\	.	8BB-/	.	.	8B-\	-li	.	8d\	.	.
8F\	8r	8r	.	.	8r	.	.	8r	.	.
8D\	8r	8r	.	.	8r	.	.	8r	.	.
8BB-\J	8d/ 8f 8b-	8BB-/	.	.	8F/	Mszy	.	8d\	.	.
=4	=4	=4	=4	=4	=4	=4	=4	=4	=4	=4
*	*^	*	*	*	*	*	*	*	*	*
2AA/	2cc/	2.f\	4AA/	.	.	4F/	Swię-	.	4c\	.	.
.	.	.	4AA/	.	.	4F/	-tej	.	4c\	.	.
8.BB-/L	8.dd/L	.	(8.BB-/L	.	.	4F/	O	.	(8.d\L	.	.
16D/Jk	16ff/Jk	.	16D/Jk)	.	.	.	.	.	16f\Jk)	.	.
!!LO:LB:g=original
=5	=5	=5	=5	=5	=5	=5	=5	=5	=5	=5	=5
2F\	8.ff/L	2a\	4F\	.	.	4A\	Bo-	.	(8.f\L	.	.
.	16ee-/Jk	.	.	.	.	.	.	.	16e-\Jk)	.	.
.	4cc/	.	4F\	.	.	4A\	-że	.	4c\	.	.
4F#X\	4dd/	4a\	4F#X\	.	.	4A\	niech	.	4d\	.	.
=6	=6	=6	=6	=6	=6	=6	=6	=6	=6	=6	=6
!	!	!	!	!	!	!	!	!	!	!	!LO:DY:a
4.G\	4.ee-/	4.b-\	4.G\	.	.	4.B-\	lud	.	4.e-\	.	<
8F#X\	8dd/	8a\	8F#X\	.	.	8A\	któ-	.	8d\	.	[
8.G\L	8.ee-/L	8.b-\L	8.G\	.	.	8.B-\	-ry	.	8.e-\	.	.
16Fn\Jk	16dd/Jk	16a\Jk	16Fn\	.	.	16A\	cię	.	16d\	.	.
=7	=7	=7	=7	=7	=7	=7	=7	=7	=7	=7	=7
2E-\	4dd/	2.g\	4E-\	.	.	4G/	chwa-	.	4d\	.	.
.	4cc/	.	4E-\	.	.	4G/	-li	.	4c\	.	.
4EE-/ 4E-	4gg/	.	4E-\	.	.	4G/	Twa	.	4f\	.	.
=8	=8	=8	=8	=8	=8	=8	=8	=8	=8	=8	=8
4FF/ 4F	2a/	2.f\	4F\	.	.	4F/	łas-	.	4A\	.	.
4EE-/ 4E-	.	.	4E-\	.	.	4F/	-ka	.	4A\	.	.
8.D/L	8.b-/L	.	(8.D/L	.	.	4F/	wspo-	.	(8.B-\L	.	.
16BB-/Jk	16dd/Jk	.	16BB-/Jk)	.	.	.	.	.	16d\Jk)	.	.
!!LO:LB:g=original
=9	=9	=9	=9	=9	=9	=9	=9	=9	=9	=9	=9
4F\	4b-/ 4dd	4f\	4F\	.	.	4B-\	-mo-	.	4d\	.	.
8FF/ 8F	8a/ 8cc/	4ryy	8F\	.	.	8A\	-że	.	8c\	.	.
8r	8r	.	8r	.	.	8r	.	.	8r	.	.
!	!	!	!	!	!	!	!	!	!	!	!LO:DY:a
4FF/ 4F	8.f/L 8.a	4ryy	8.F\	.	.	8.F/	Od-	.	8.A\	.	mf
.	16g/Jk 16b-	.	16F\	.	.	16G/	-puść	.	16B-\	.	.
*	*v	*v	*	*	*	*	*	*	*	*	*
=10	=10	=10	=10	=10	=10	=10	=10	=10	=10	=10
*tremolo	*	*	*	*	*	*	*	*	*	*
!LO:TX:t=P:problem=mixed beam	!	!	!	!	!	!	!	!	!	!LO:DY:a
8FF/L	4.a\ 4.cc	2F\	.	.	(4.A/	nam	.	(4.c\	.	<
8F\	.	.	.	.	.	.	.	.	.	.
8FF/	.	.	.	.	.	.	.	.	.	.
8F\	8g#X\ 8bn	.	.	.	8G#X/)	.	.	8Bn\)	.	.
8FF/	8.a\L 8.cc	8.F\	.	.	8.A\	na-	.	8.c\	.	.
8F\J	.	.	.	.	.	.	.	.	.	.
.	16b-X\Jk 16dd	16F\	.	.	16B-\	-sze	.	16d\	.	[[
*Xtremolo	*	*	*	*	*	*	*	*	*	*
=11	=11	=11	=11	=11	=11	=11	=11	=11	=11	=11
!LO:TX:t=P:problem=mixed beam	!	!	!	!	!	!	!	!	!	!LO:DY:a
8FF/L	4cc\ 4ee-	4F\	.	.	4c\	wi-	.	4e-\	.	>
8F\	.	.	.	.	.	.	.	.	.	.
8FF/J	8a\ 8cc	8F\	.	.	8A\	-ny	.	8c\	.	]
8r	8r	8r	.	.	8r	.	.	8r	.	.
!	!	!	!	!LO:DY:a	!	!	!LO:DY:a	!	!	!LO:DY:a
4FF/ 4F	4f/ 4ff	4F\	.	p	4F/	Gdy	p	4f\	.	p
=12	=12	=12	=12	=12	=12	=12	=12	=12	=12	=12
*^	*^	*	*	*	*	*	*	*	*	*
2.F/	2BB-\	2dd-X/	[2.f\	2BB-/	.	.	2F/	sta-	.	2d-X\	.	.
.	8.C\L	8.cc/L	.	8.C/	.	.	8.F/	-niem	.	8.c\	.	.
.	16D-X\Jk	16b-/Jk	.	16D-X/	.	.	16F/	przed	.	16B-\	.	.
*v	*v	*	*	*	*	*	*	*	*	*	*	*
!!LO:PB:g=original
=13	=13	=13	=13	=13	=13	=13	=13	=13	=13	=13	=13
4.FF/ 4.F	4b-/ 4dd-X	4.f\]	4F\	.	.	4B-\	To-	.	4d-X\	.	.
.	8a/ 8cc	.	8F\	.	.	8B-\	-bą	.	8c\	.	.
8r	8r	8ryy	8r	.	.	8r	.	.	8r	.	.
*	*v	*v	*	*	*	*	*	*	*	*	*
=!|:	=!|:	=!|:	=!|:	=!|:	=!|:	=!|:	=!|:	=!|:	=!|:	=!|:
4r	8.f/L 8.ff	4r	.	.	8.f^\	Bo-	.	4r	.	.
.	16e-/Jk 16ee-	.	.	.	16e-\	-że	.	.	.	.
=14	=14	=14	=14	=14	=14	=14	=14	=14	=14	=14
2.r	4.d/ 4.dd	2.r	.	.	4d\	w Trój-	.	4r	.	.
.	.	.	.	.	8d\	-cy	.	4r	.	.
.	8r	.	.	.	8r	.	.	.	.	.
.	8.dd\L 8.ff	.	.	.	8.d\	Bo-	.	8.f\	.	.
.	16cc\Jk 16ee-	.	.	.	16c\	-że	.	16e-\	.	.
=15	=15	=15	=15	=15	=15	=15	=15	=15	=15	=15
*	*^	*	*	*	*	*	*	*	*	*
4r	4.b-\ 4.dd	4ryy	4r	.	.	4B-\	w Trój-	.	4d\	.	.
4r	.	4ryy	4r	.	.	8B-\	-cy	.	8d\	.	.
.	8r	.	.	.	.	8r	.	.	8r	.	.
8.GG/L 8.G	4dd/	8.g\L 8.b-	(8.G\L	Je	.	(8.B-\L	Je-	.	4d\	.	.
16FF/Jk 16F	.	16g\Jk 16bn	16F\Jk)	.	.	16Bn\Jk)	.	.	.	.	.
=16	=16	=16	=16	=16	=16	=16	=16	=16	=16	=16	=16
!	!	!	!	!	!	!	!	!	!	!	!LO:DY:a
4EE-/ 4E-	4ff/	[<4g\ [>4cc	4E-\	.	.	4c\	-dy-	.	4f\	.	f
8.EE-/L 8.E-	8.cc/L] 8.ee-	2g\]	8.E-\	.	.	8.c\	-ny	.	8.e-\	.	.
16CC/K 16C	16cc/K 16ee-	.	16C/	.	.	16c\	daj	.	16e-\	.	.
8.DD/ 8.D	8.bn/ 8.dd	.	8.D\	.	.	8.Bn\	mie-	.	8.d\	.	.
16EE-/Jk 16E-	16cc/Jk	.	16E-\	.	.	16G/	-szkać	.	16c\	.	.
!!LO:LB:g=original
=17	=17	=17	=17	=17	=17	=17	=17	=17	=17	=17	=17
*	*	*^	*	*	*	*	*	*	*	*	*
2.FF/ 2.F	4dd/	2b-/	2.f\	2.F\	.	.	(2B-\	z So-	.	(4d\	.	.
.	4cc/	.	.	.	.	.	.	.	.	4c\	.	.
.	4a/ 4ff	4ryy	.	.	.	.	4A\)	.	.	4f\)	.	.
*	*v	*v	*v	*	*	*	*	*	*	*	*	*
=18	=18	=18	=18	=18	=18	=18	=18	=18	=18	=18
4.BB-/ 4.F	4.f/ 4.b- 4.dd	4.BB-/	.	.	4.B-\	-bą	.	4.d\	.	.
8r	8r	8r	.	.	8r	.	.	8r	.	.
=19:|!	=19:|!	=19:|!	=19:|!	=19:|!	=19:|!	=19:|!	=19:|!	=19:|!	=19:|!	=19:|!
4BB-\ 4B-	4b-\	4B-\	.	.	4B-\	bą	.	4B-\	.	.
4r	4r	4r	.	.	4r	.	.	4r	.	.
4BB-/	4r	8.BB-/	Od-	.	4r	.	.	4r	.	.
.	.	16BB-/	-puść	.	.	.	.	.	.	.
=20	=20	=20	=20	=20	=20	=20	=20	=20	=20	=20
2A-X\	4r	2A-X\	nam	.	2.r	.	.	4r	.	.
.	4r	.	.	.	.	.	.	4r	.	.
8.B-\L	8.dd\L	8.B-\	Od-	.	.	.	.	8.d\	Od-	.
16A-\Jk	16ff\Jk	16A-\	-puść	.	.	.	.	16f\	-puść	.
=21	=21	=21	=21	=21	=21	=21	=21	=21	=21	=21
2G\	2ee-\	2G\	nam	.	4r	.	.	2e-\	.	.
.	.	.	.	.	4r	.	.	.	.	.
4B-\	[4b-\	4r	.	.	8.B-\	Od-	.	4r	.	.
.	.	.	.	.	16B-\	-puść	.	.	.	.
!!LO:LB:g=original
=22	=22	=22	=22	=22	=22	=22	=22	=22	=22	=22
*^	*^	*	*	*	*	*	*	*	*	*
2B-\	4ryy	2b-/]	2.b-\	4r	.	.	2B-\	nam	.	4r	.	.
.	4ryy	.	.	4r	.	.	.	.	.	4r	.	.
4B-/	8.E-\L	8.gg-X\L	.	8.E-\	.	.	8.e-\	Na-	.	8.g-X\	.	.
.	16G-X\Jk	16ee-\Jk	.	16G-X\	.	.	16B-\	-sze	.	16e-\	.	.
*v	*v	*	*	*	*	*	*	*	*	*	*	*
=23	=23	=23	=23	=23	=23	=23	=23	=23	=23	=23	=23
4B-\	4.dd/	4.b-\	4B-\	.	.	4B-\	wi-	.	4d\	.	.
8BB-/	.	.	8BB-/	.	.	8B-\	-ny	.	8d\	.	.
8r	8r	8ryy	8r	.	.	8r	.	.	8r	.	.
8.B-\L	8.dd/L	4b-\	(8.B-\L	.	.	4B-\	I	.	(8.d\L	.	.
16A-X\Jk	16ff/Jk	.	16A\Jk)	.	.	.	.	.	16f\Jk)	.	.
=24	=24	=24	=24	=24	=24	=24	=24	=24	=24	=24	=24
2G\	4.ff/	2b-\	2G\	.	.	2B-\	mie-	.	(4.f\	.	.
.	8ee-/	.	.	.	.	.	.	.	8e-\)	.	.
4E-\	8dd/L	4g\	4E-\	.	.	4G/	-szkaj	.	(8d\L	.	.
.	8cc/J	.	.	.	.	.	.	.	8c\J)	.	.
=25	=25	=25	=25	=25	=25	=25	=25	=25	=25	=25	=25
*	*	*^	*	*	*	*	*	*	*	*	*
2.FF/ 2.F	4dd/	2b-\	2.f\	2.F\	.	.	(2B-\	zna-	.	(4d\	.	.
.	4cc/	.	.	.	.	.	.	.	.	4c\	.	.
.	4ff/	4a\	.	.	.	.	4A\)	.	.	4f\)	.	.
*	*	*v	*v	*	*	*	*	*	*	*	*	*
!!LO:PB:g=original
=26	=26	=26	=26	=26	=26	=26	=26	=26	=26	=26	=26
2GG/ 2G	2b-/ 2dd	2g\	2G\	.	.	2B-\	-mi	.	2d\	.	.
4AA-X/ 4A-X	8.dd/L	4b-\	4A-X\	.	.	4B-\	I	.	(8.d\L	.	.
.	16ff/Jk	.	.	.	.	.	.	.	16f\Jk)	.	.
=27	=27	=27	=27	=27	=27	=27	=27	=27	=27	=27	=27
2GG/ 2G	4.ff/	2b-\	2G\	.	.	2B-\	miesz-	.	(4.f\	.	.
.	8ee-/	.	.	.	.	.	.	.	8e-\)	.	.
4EE-/ 4E-	8dd/L	4g\	4E-\	.	.	4G/	-kaj	.	(8d\L	.	.
.	8cc/J	.	.	.	.	.	.	.	8c\J)	.	.
=28	=28	=28	=28	=28	=28	=28	=28	=28	=28	=28	=28
2.FF/ 2.F	4dd/	2b-\	2.F\	.	.	(2B-\	zna-	.	(4d\	.	.
.	4cc/	.	.	.	.	.	.	.	4c\	.	.
.	4ff/	4a\	.	.	.	4A\)	.	.	4f\)	.	.
*	*v	*v	*	*	*	*	*	*	*	*	*
=29	=29	=29	=29	=29	=29	=29	=29	=29	=29	=29
*^	*	*	*	*	*	*	*	*	*	*
4.BB-\ 4.B-	4ryy	4.b-\	4B-\	.	.	4B-\	-mi	.	4B-\	.	.
.	8ryy	.	4r	.	.	4r	.	.	4r	.	.
8B-/L	4.BB-\	8b-\L 8dd	.	.	.	.	.	.	.	.	.
8A/	.	8cc\ 8ee-	4r	.	.	4r	.	.	4r	.	.
8A-X/J	.	8dd\J 8ff	.	.	.	.	.	.	.	.	.
!!LO:LB:g=original
=30	=30	=30	=30	=30	=30	=30	=30	=30	=30	=30	=30
*	*	*^	*	*	*	*	*	*	*	*	*
4G/	2.BB-\	2ee-/	2b-\	4r	.	.	4r	.	.	4r	.	.
4G-X/	.	.	.	4r	.	.	4r	.	.	4r	.	.
4F/	.	4cc/	4a\	4A\	.	.	4c\	A-	.	4e-\	.	.
*	*	*v	*v	*	*	*	*	*	*	*	*	*
=31	=31	=31	=31	=31	=31	=31	=31	=31	=31	=31	=31
4.F/	4.BB-\	4.b-/ 4.dd	4.B-\	.	.	4.B-\	-men	.	4.d\	.	.
(4.F/	[4.BB-\	8d/ 8b-L	8r	.	.	8r	.	.	8r	.	.
.	.	8e-/ 8a	4r	.	.	4r	.	.	4r	.	.
.	.	8f/J 8a-X	.	.	.	.	.	.	.	.	.
=32	=32	=32	=32	=32	=32	=32	=32	=32	=32	=32	=32
2G/)	2.BB-\_	2e-/ 2g	4r	.	.	4r	.	.	4r	.	.
.	.	.	4r	.	.	4r	.	.	4r	.	.
[4F/	.	4c/ 4e- 4f 4a	(4F\	.	.	(4A\	A-	.	(4c\	.	.
=33	=33	=33	=33	=33	=33	=33	=33	=33	=33	=33	=33
4F/]	4BB-\]	2.d/ 2.f 2.b-	4B-\	.	.	2B-\	.	.	2d\	.	.
4D\	4ryy	.	4F\	.	.	.	.	.	.	.	.
4BB-/	4ryy	.	4D\)	.	.	4F/)	.	.	4B-\)	.	.
*v	*v	*	*	*	*	*	*	*	*	*	*
=34	=34	=34	=34	=34	=34	=34	=34	=34	=34	=34
!LO:TX:i:a:t=Fine\nA Jędrzejew	!	!	!	!	!	!	!	!	!	!
2.BB-;/	2.d;/ 2.f 2.b-	2BB-/	.	.	2B-\	-men	.	2d\	.	.
.	.	4r;	.	.	4r;	.	.	4r;	.	.
==	==	==	==	==	==	==	==	==	==	==
*-	*-	*-	*-	*-	*-	*-	*-	*-	*-	*-
!!!system-decoration: g1{(g2)}
!!!RDF**kern: > = above
!!!RDF**kern: < = below
!!!ENC: Marcin Jachim
!!!END: 2021-08-13
!!!ENC: Kamil Watkowski
!!!END: 2021-09-09
